packages/katcn/src/icons/svg/mark-solid.svg

<svg width="24" height="24" viewBox="0 0 24 24" fill="none" xmlns="http://www.w3.org/2000/svg">
<path d="M22 11H20.4C20 7.1 16.9 4 13 3.6V2C13 1.4 12.6 1 12 1C11.4 1 11 1.4 11 2V3.6C7.1 4 4 7.1 3.6 11H2C1.4 11 1 11.4 1 12C1 12.6 1.4 13 2 13H3.6C4.1 16.9 7.1 20 11 20.4V22C11 22.6 11.4 23 12 23C12.6 23 13 22.6 13 22V20.4C16.9 19.9 20 16.9 20.4 13H22C22.6 13 23 12.6 23 12C23 11.4 22.6 11 22 11Z" fill="black"/>
<path d="M12 15.3C13.8226 15.3 15.3 13.8226 15.3 12C15.3 10.1775 13.8226 8.70001 12 8.70001C10.1775 8.70001 8.70001 10.1775 8.70001 12C8.70001 13.8226 10.1775 15.3 12 15.3Z" fill="white"/>
</svg>

<svg xmlns="http://www.w3.org/2000/svg" fill="none" viewBox="0 0 24 24"><path fill="#000" d="M22 11h-1.6C20 7.1 16.9 4 13 3.6V2c0-.6-.4-1-1-1s-1 .4-1 1v1.6C7.1 4 4 7.1 3.6 11H2c-.6 0-1 .4-1 1s.4 1 1 1h1.6c.5 3.9 3.5 7 7.4 7.4V22c0 .6.4 1 1 1s1-.4 1-1v-1.6c3.9-.5 7-3.5 7.4-7.4H22c.6 0 1-.4 1-1s-.4-1-1-1"/><path fill="#fff" d="M12 15.3a3.3 3.3 0 1 0 0-6.6 3.3 3.3 0 0 0 0 6.6"/></svg>
